src/Assets/twitter.svg

<svg height="44" viewBox="0 0 44 44" width="44" xmlns="http://www.w3.org/2000/svg"><g fill="none" fill-rule="evenodd" transform="translate(-1 -1)"><path d="m23 .999994c12.150302 0 22.000052 9.849704 22.000052 22.000006 0 12.150348-9.84975 22.000052-22.000052 22.000052-12.150256 0-22.000052-9.849704-22.000052-22.000052 0-12.150302 9.849796-22.000006 22.000052-22.000006z" fill="#880d1e"/><path d="m31.503594 16.277252c-.714032.4338-1.504954.748638-2.346344.919296-.67353-.73737-1.632422-1.196856-2.694758-1.196856-2.03984 0-3.693206 1.696626-3.693206 3.787398 0 .296604.032956.585738.095612.862668-3.068692-.157806-5.789696-1.666008-7.611032-3.957426-.317988.558306-.499268 1.209222-.499268 1.90377 0 1.314378.652476 2.473812 1.642278 3.152178-.605286-.020628-1.17425-.191286-1.672506-.475668v.047268c0 1.835244 1.27314 3.36519 2.961596 3.714912-.309254.085644-.635404.13275-.97262.13275-.238524 0-.469172-.025056-.69542-.068832.470184 1.504242 1.833436 2.59974 3.448764 2.631312-1.26324 1.015254-2.856172 1.620342-4.585658 1.620342-.298364 0-.592152-.018252-.881144-.052182 1.634644 1.073934 3.574582 1.70154 5.66071 1.70154 6.792126 0 10.5061-5.771592 10.5061-10.776294l-.012012-.491058c.7238-.531648 1.351064-1.198764 1.845448-1.95786-.662442.301194-1.37313.505332-2.120206.596844.762432-.468846 1.346862-1.212246 1.623666-2.094102z" fill="#fff"/></g></svg>

<?xml version="1.0" encoding="UTF-8"?>
<svg width="44px" height="44px" viewBox="0 0 44 44" version="1.1" xmlns="http://www.w3.org/2000/svg" xmlns:xlink="http://www.w3.org/1999/xlink">
    <!-- Generator: Sketch 53.2 (72643) - https://sketchapp.com -->
    <title>twitter</title>
    <desc>Created with Sketch.</desc>
    <g id="Symbols" stroke="none" stroke-width="1" fill="none" fill-rule="evenodd">
        <g id="Desktop-HD/Common/Footer" transform="translate(-1085.000000, -77.000000)">
            <g id="Desktop-HD-Footer">
                <g id="social-media" transform="translate(1083.000000, 42.000000)">
                    <g id="twitter" transform="translate(1.000000, 34.000000)">
                        <path d="M23,0.999994 C35.150302,0.999994 45.000052,10.849698 45.000052,23 C45.000052,35.150348 35.150302,45.000052 23,45.000052 C10.849744,45.000052 0.999948,35.150348 0.999948,23 C0.999948,10.849698 10.849744,0.999994 23,0.999994 Z" id="stroke" fill="#880D1E"></path>
                        <path d="M31.503594,16.277252 C30.789562,16.711052 29.99864,17.02589 29.15725,17.196548 C28.48372,16.459178 27.524828,15.999692 26.462492,15.999692 C24.422652,15.999692 22.769286,17.696318 22.769286,19.78709 C22.769286,20.083694 22.802242,20.372828 22.864898,20.649758 C19.796206,20.491952 17.075202,18.98375 15.253866,16.692332 C14.935878,17.250638 14.754598,17.901554 14.754598,18.596102 C14.754598,19.91048 15.407074,21.069914 16.396876,21.74828 C15.79159,21.727652 15.222626,21.556994 14.72437,21.272612 L14.72437,21.31988 C14.72437,23.155124 15.99751,24.68507 17.685966,25.034792 C17.376712,25.120436 17.050562,25.167542 16.713346,25.167542 C16.474822,25.167542 16.244174,25.142486 16.017926,25.09871 C16.48811,26.602952 17.851362,27.69845 19.46669,27.730022 C18.20345,28.745276 16.610518,29.350364 14.881032,29.350364 C14.582668,29.350364 14.28888,29.332112 13.999888,29.298182 C15.634532,30.372116 17.57447,30.999722 19.660598,30.999722 C26.452724,30.999722 30.166698,25.22813 30.166698,20.223428 L30.154686,19.73237 C30.878486,19.200722 31.50575,18.533606 32.000134,17.77451 C31.337692,18.075704 30.627004,18.279842 29.879928,18.371354 C30.64236,17.902508 31.22679,17.159108 31.503594,16.277252 Z" id="logo" fill="#FFFFFF"></path>
                    </g>
                </g>
            </g>
        </g>
    </g>
</svg>
